assets/img/braze_icons/lightbulb-03.svg

<svg fill="none" height="24" viewBox="0 0 24 24" width="24" xmlns="http://www.w3.org/2000/svg"><g clip-rule="evenodd" fill="#801ed7" fill-rule="evenodd"><path d="m8.5 22c0-.5523.44772-1 1-1h5c.5523 0 1 .4477 1 1s-.4477 1-1 1h-5c-.55228 0-1-.4477-1-1z"/><path d="m4 9c0-4.41828 3.58172-8 8-8 4.4183 0 8 3.58172 8 8 0 2.9626-1.6104 5.5473-4 6.9295v.1025c0 .4386 0 .8171-.0213 1.1304-.0226.3298-.0721.6597-.2071.9857-.3044.735-.8885 1.3191-1.6235 1.6235-.326.135-.6559.1845-.9857.2071-.3133.0213-.6918.0213-1.1304.0213h-.064c-.4386 0-.8171 0-1.1304-.0213-.3298-.0226-.6597-.0721-.98565-.2071-.73508-.3044-1.31911-.8885-1.62359-1.6235-.135-.326-.18451-.6559-.20701-.9857-.02137-.3133-.02136-.6918-.02135-1.1304v-.1025c-2.38962-1.3822-4-3.9669-4-6.9295z"/></g></svg>

<svg width="24" height="24" viewBox="0 0 24 24" fill="none" xmlns="http://www.w3.org/2000/svg">
<path fill-rule="evenodd" clip-rule="evenodd" d="M8.5 22C8.5 21.4477 8.94772 21 9.5 21H14.5C15.0523 21 15.5 21.4477 15.5 22C15.5 22.5523 15.0523 23 14.5 23H9.5C8.94772 23 8.5 22.5523 8.5 22Z" fill="#801ED7"/>
<path fill-rule="evenodd" clip-rule="evenodd" d="M4 9C4 4.58172 7.58172 1 12 1C16.4183 1 20 4.58172 20 9C20 11.9626 18.3896 14.5473 16 15.9295V16.032C16 16.4706 16 16.8491 15.9787 17.1624C15.9561 17.4922 15.9066 17.8221 15.7716 18.1481C15.4672 18.8831 14.8831 19.4672 14.1481 19.7716C13.8221 19.9066 13.4922 19.9561 13.1624 19.9787C12.8491 20 12.4706 20 12.032 20H11.968C11.5294 20 11.1509 20 10.8376 19.9787C10.5078 19.9561 10.1779 19.9066 9.85195 19.7716C9.11687 19.4672 8.53284 18.8831 8.22836 18.1481C8.09336 17.8221 8.04385 17.4922 8.02135 17.1624C7.99998 16.8491 7.99999 16.4706 8 16.032L8 15.9295C5.61038 14.5473 4 11.9626 4 9Z" fill="#801ED7"/>
</svg>
